packages/calcite-ui-icons/icons/autocomplete-polygon-32.svg

<?xml version="1.0" encoding="UTF-8"?><svg id="icons" xmlns="http://www.w3.org/2000/svg" viewBox="0 0 32 32"><defs><style>.cls-1{fill:none;}</style></defs><rect class="cls-1" width="32" height="32"/><path d="M26,8v-3h-3v1H6v-1h-3v3h1v16h-1v3h3v-1h17v1h3v-3h-3v1H6v-1h-1V8h1v-1h17v1h3ZM24,6h1v1h-1v-1ZM24,25h1v1h-1v-1ZM5,26h-1v-1h1v1ZM5,7h-1v-1h1v1ZM18,8h1v16h-1V8ZM31,1v30h-13v-4h1v3h11V2h-11v3h-1V1h13Z"/></svg>

<svg xmlns="http://www.w3.org/2000/svg" viewBox="0 0 32 32"><path d="M0 0h32v32H0z" style="fill:none"/><path d="M26 8V5h-3v1H6V5H3v3h1v16H3v3h3v-1h17v1h3v-3h-3v1H6v-1H5V8h1V7h17v1zm-2-2h1v1h-1zm0 19h1v1h-1zM5 26H4v-1h1zM5 7H4V6h1zm13 1h1v16h-1zm13-7v30H18v-4h1v3h11V2H19v3h-1V1z"/></svg>
